X: 300
T: The Red-Haired Boy
B: canberra pickers and fiddlers
B: tunes
M:C|
L:1/8
R: reel
Q: 1/4=100
K:Amixolydian
V:1 
GF \
| "A"E2A2 ABcd | e2ec "D"d2cd | "A"e2A2 ABcA | "G"BGEF G2GF | "A"E2A2 ABcd |
| e2ec "D"d2cd | "A"e2a2 "E7"aged | "A"c2A2 A2 :: ef | "G"g2ef g2ef | gfec "D"d2cd |
| "A"e2A2 ABcA | "G"BGEF G2GF | "A"E2A2 ABcd | e2ec "D"d2cd | "A"e2a2 "E7"aged | "A"c2A2 A2 :|
% abcbook-tune_id 63da59341ee0a34e4d5fdfc9
% abcbook-tune_composer_id 
% abcbook-link-0 https://www.youtube.com/watch?v=F-SASKMpjgk
% abcbook-boost 0
% abcbook-difficulty 0
% abcbook-tags canberra pickers and fiddlers,old time tunes,© free
% abcbook-tablature 
% abcbook-transpose 
% abcbook-tuning GDAE
% abcbook-lastupdated 1675254068533
% abcbook-src-url https://tunebook.net/scrape/tunes.abc
% abcbook-soundfonts 
% abcbook-repeats 1
%%gchordfont "itim-music,Itim" 20

